src/base/static/base/assets/include/rs-plugin/demos/assets/svg/device/ic_bluetooth_connected_24px.svg

<svg height="24" viewBox="0 0 24 24" width="24" xmlns="http://www.w3.org/2000/svg"><path d="m7 12-2-2-2 2 2 2zm10.71-4.29-5.71-5.71h-1v7.59l-4.59-4.59-1.41 1.41 5.59 5.59-5.59 5.59 1.41 1.41 4.59-4.59v7.59h1l5.71-5.71-4.3-4.29zm-4.71-1.88 1.88 1.88-1.88 1.88zm1.88 10.46-1.88 1.88v-3.76zm4.12-6.29-2 2 2 2 2-2z"/></svg>

<svg xmlns="http://www.w3.org/2000/svg" width="24" height="24" viewBox="0 0 24 24"><path d="M7 12l-2-2-2 2 2 2 2-2zm10.71-4.29L12 2h-1v7.59L6.41 5 5 6.41 10.59 12 5 17.59 6.41 19 11 14.41V22h1l5.71-5.71-4.3-4.29 4.3-4.29zM13 5.83l1.88 1.88L13 9.59V5.83zm1.88 10.46L13 18.17v-3.76l1.88 1.88zM19 10l-2 2 2 2 2-2-2-2z"/></svg>
